X: 3
T:A Trip to Perth
R:reel
C:Bruce Osborne  --  Sept.1997
Z:abc by bosborne@kos.net
M:2/4
L:1/8
K:A
E/D/|C/A,/C/E/ Ac/d/|e/f/e/c/ Ac/d/|e/f/e/c/ A/c/e/c/|B/A/G/F/ EE/D/|\
C/A,/C/E/ Ac/d/|e/f/e/c/ AG/A/|B/c/B/G/ E/G/B/G/|A/c/B/G/ A:|
|:c/d/|e/f/e/c/ a/f/e/a/|f/e/c/B/ AG/A/|B/c/B/G/ E/G/B/G/|A/F/E/C/ A,c/d/|\
e/f/e/c/ a/f/e/a/|f/e/c/B/ AG/A/|B/c/B/G/ E/G/B/G/|A/c/B/G/ A:|
